X:306
T: Der geistliche Buchsbaum
N: A0654B
O: Europa, Mitteleuropa, Deutschland
N: Boehm. Bruedergsgb. 1566 Anh. Bl. 47
R: Romanze, Ballade, Lied, religioeses Lied
M: 3/1
L: 1/1
K: G
G | G2G | A2B | c2c | A2
B | c2c | B2G | A2A | A2
A | G2G | G2E | F2G | A2
B | c2B | A2G | A3 | G2
B | c2c | B2c | A3 | G2

@@@ Tune index: 619
